images/whatsappPopup.svg

<svg width="40" height="40" viewBox="0 0 40 40" fill="none" xmlns="http://www.w3.org/2000/svg">
<rect width="40" height="40" rx="20" fill="#55B67B"/>
<g clip-path="url(#clip0_265_362)">
<path d="M20.0012 11.1992C15.143 11.1992 11.2012 15.141 11.2012 19.9992C11.2012 21.9445 11.8308 23.7363 12.8956 25.1953L11.7745 28.5125L15.271 27.4221C16.6378 28.2924 18.2606 28.7992 20.0012 28.7992C24.8593 28.7992 28.8012 24.8574 28.8012 19.9992C28.8012 15.141 24.8593 11.1992 20.0012 11.1992ZM24.03 24.7192C22.4328 25.3591 20.5285 24.7396 18.4449 23.1578C16.3614 21.5759 14.9894 19.3491 14.8973 17.6956C14.8051 16.042 16.1515 15.2076 16.8835 15.2127C17.6156 15.2178 18.4193 17.5573 18.4296 17.9157C18.4398 18.2791 17.5337 18.9242 17.4979 19.2313C17.462 19.5385 18.7316 21.0538 19.2691 21.4633C19.8015 21.8677 20.9022 22.6459 21.4704 22.5742C22.0335 22.4974 22.4072 21.3661 22.7656 21.2944C23.1239 21.2227 25.0795 22.1954 25.274 22.4462C25.4685 22.7022 25.4481 24.1561 24.03 24.7192Z" fill="white"/>
</g>
<defs>
<clipPath id="clip0_265_362">
<rect x="11.2012" y="11.1992" width="17.6" height="17.6" rx="8.8" fill="white"/>
</clipPath>
</defs>
</svg>

<svg width="40" height="40" fill="none" xmlns="http://www.w3.org/2000/svg"><rect width="40" height="40" rx="20" fill="#55B67B"/><g clip-path="url(#a)"><path d="M20.001 11.2a8.802 8.802 0 0 0-7.105 13.995l-1.122 3.317 3.497-1.09A8.803 8.803 0 0 0 28.801 20c0-4.858-3.942-8.8-8.8-8.8Zm4.029 13.52c-1.597.64-3.502.02-5.585-1.562-2.084-1.582-3.456-3.809-3.548-5.462-.092-1.654 1.254-2.488 1.987-2.483.732.005 1.535 2.344 1.546 2.703.01.363-.896 1.008-.932 1.315-.036.307 1.234 1.823 1.771 2.232.533.405 1.633 1.183 2.201 1.111.564-.077.937-1.208 1.296-1.28.358-.071 2.314.901 2.508 1.152.194.256.174 1.71-1.244 2.273Z" fill="#fff"/></g><defs><clipPath id="a"><rect x="11.201" y="11.199" width="17.6" height="17.6" rx="8.8" fill="#fff"/></clipPath></defs></svg>
